X:1
T:James Gibb editions
T:Crucem sanctam - Haydn M
%%score [ 1 2 3 4 ]
L:1/8
Q:1/4=108
M:2/2
K:Bb
V:1 treble nm="Soprano" snm="S"
V:2 treble nm="Alto" snm="A"
V:3 treble-8 nm="Tenor" snm="T"
V:4 bass nm="Bass" snm="B"
V:1
"^Johann Michael Haydn\n(1737-1806)""^Crucem sanctam" B6 F2 | G4 F4 | B4 (c2 d2) | (e4 d4 | %4
w: Cru- cem|san- ctam,|cru- cem *|san\- *|
 c6) B2 | A3 A B4 | e6 d2 | d4 c4 | d6 d2 | (d2 cB) A2 B2 | (A4 G4) | F4 z2 F2 | A6 B2 | c6 d2 | %14
w: * ctam|sub- i- it,|qui in-|fer- num,|qui in-|fer\- * * num con-|fre\- *|git: ac-|cin- ctus|est po-|
 e6 d2 | d4 c4 | B6 B2 | c4 c4 | c6 (de) | (e4 d4) | e6 e2 | (e2 dc) d2 e2 | d4 c4 | B8 |] %24
w: ten- ti-|a, sur-|re- xit|di- e|ter- ti\- *|a. *|Al- le-|lu\- * * ia, al-|le- lu-|ia!|
V:2
 D6 D2 | E4 D4 | z2 F4 F2 | (F8 | G6) G2 | F3 F F4 | F6 G2 | F4 F4 | z4 F2 F2 | =E4 F2 D2 | %10
w: Cru- cem|san- ctam,|cru- cem|sanc\-|* tam|sub- i- it,|qui in-|fer- num,|qui in-|fer- num con-|
 (C6 B,2) | A,4 z2 F2 | F6 F2 | F6 F2 | F6 G2 | F4 F4 | F6 F2 | G4 G4 | A6 (Bc) | (c4 B4) | %20
w: fre\- *|git: ac-|cin- ctus|est po-|ten- ti-|a, sur-|re- xit|di- e|ter- ti\- *|a. *|
 z4 G2 G2 | F4 F2 G2 | F6 E2 | D8 |] %24
w: Al- le-|lu- ia, al-|le- lu-|ia!|
V:3
 F6 B2 | B4 B4 | z2 (B2 A2) B2 | (c4 B4- | B6) c2 | c3 c d4 | c6 B2 | B4 A4 | B6 B2 | %9
w: Cru- cem|sanc \-ctam,|cru\- * cem|san\- *|* ctam|sub- i- it,|qui in-|fer- num,|qui in-|
 (B2 AG) F2 G2 | (F4 =E4) | F4 z2 F2 | c6 d2 | A6 B2 | c6 B2 | B4 A4 | D6 D2 | E4 E4 | F6 F2 | G8 | %20
w: fer\- * * num con-|fre\- *|git: ac-|cin- ctus|est po-|ten- ti-|a, sur-|re- xit|di- e|ter- ti-|a.|
 c6 c2 | (A2 BA) B2 c2 | B4 A4 | B8 |] %24
w: Al- le-|lu\- * * ia, al-|le- lu-|ia!|
V:4
 B,,6 G,,2 | E,4 B,,4 | z2 (D,2 C,2) B,,2 | (A,,4 B,,4 | E,6) E,2 | F,3 E, D,4 | (A,,4 B,,2) =E,2 | %7
w: Cru- cem|san \-ctam,|cru\- * cem|san\- *|* ctam|sub- i- it,|qui * in-|
 F,4 F,4 | z4 B,,4 | C,4 D,2 B,,2 | C,8 | F,,4 z2 F,2 | F,6 F,2 | F,6 F,2 | (F,2 G,A, B,2) =E,2 | %15
w: fer- num,|in-|fer- num con-|fre-|git: ac-|cin- ctus|est po-|ten\- * * * ti-|
 F,4 F,,4 | D,6 D,2 | E,4 E,4 | F,6 F,2 | G,8 | z4 C,2 C,2 | F,2 F,2 B,2 E,2 | F,8 | B,,8 |] %24
w: a, sur-|re- xit|di- e|ter- ti-|a.|Al- le-|lu- ia, al- le-|lu-|ia!|

